X: 4669
T: Boy On The Mountain Top, The
R: reel
M: 4/4
K: Adorian
|:[A3E3] B cBAG|EG ~G2 G2 [1 AG|EAAB cBcd|(3efg dc BdgB|
[2 AB|~c2 ec ~B2 GB|dBGB {c}BA A2:|:[A2E2] (3Bcd (3efg dB|
GBd^c defg|(3gag ed (3efg dc|BdgB BA A2|(3gag ed (3efg dc|GBd^c defg|(3gfe (3fed edef|gbaf gedB:|

